!!!OTL: 1331. Die Fueselier.
!!!ARE: Europa, Mitteleuropa, Deutschland, Sachsen
!!!SCT: E1331A
!!!TXL: @@DE
!!!YEM: Copyright 1995, estate of Helmut Schaffrath.
**kern	**text
*ICvox	*
*M4/4	*
*met(c)	*
*k[b-]	*
*F:	*
=1	=1
!LO:TX:a:t=Aus Sachſen und Heſſen-Darmſtadt.	!
{4f	Fü-
4c	-ſe-
4f	-lier
4a	ſind
=2	=2
4g	luſt-
4g	-ge
4f	Brü-
4c}	-der,
=3	=3
{4.f	ha-
8g	-ben
4a	fro-
4f	-hen
=4	=4
2cc	Muth,
2r}	.
=5	=5
{4dd	ſin-
4dd	-gen
4ff	lau-
4dd	-ter
=6	=6
4cc	luſt-
4cc	-ge
4a	Lieder,
4f}	.
=7	=7
{4cc	ſind
4cc	den
4b-	Mädchen
4g	.
=8	=8
(4f	gut,
4a	.
4cc/)	.
4ff}	.
=9	=9
{4dd	ſin-
4dd	-gen
4ff	lau-
4dd	-ter
=10	=10
4cc	luſt-
4cc	-ge
4a	Lieder,
4f}	.
=11	=11
{4cc	ſind
4cc	den
4b-	Mädchen
4g	.
=12	=12
2f	gut.
4r}	.
!LO:TX:a:t=Anhang(Sachsen).	!
{4cc	Hu-
=13	=13
4a	-ra,
4cc	hu-
4a	-ra,
4cc	hu-
=14	=14
8ddL	-ralla-
8cc	.
8b-	-la-
8aJ	-la-
4b-}	-la,
{4b-	hu-
=15	=15
4g	-ra,
4b-	hu-
4g	-ra,
4b-	hu-
=16	=16
8ccL	-ralla-
8b-	.
8a	-la-
8gJ	-la-
4a	-la!
8r}	.
{8c	Will
=17	=17
2f	ſter-
4a	-ben,
4f	will
=18	=18
2g	ſter-
4b-/}	-ben,
{4g	will
=19	=19
4cc	ſter-
4cc	-ben
4ee	als
4ee	ein
=20	=20
2ff	Held!
2r}	.
==	==
!!!AGN: Staende -, Soldaten -, Kriegs - Lied
!!!ONB: ESAC (Essen Associative Code) Database: ERK3
!!!AMT: simple quadruple
!!!AIN: vox
!!!EED: Helmut Schaffrath
!!!EEV: 1.0
!!!GTL: Staendelieder (Berufslieder). 1. Soldaten- und Kriegslieder. Soldatenlieder seit dem 30jaehr. Kriege.
!!!URL-scan: https://rosdok.uni-rostock.de/mcrviewer/recordIdentifier/rosdok_ppn745177999/iview2/phys_0217.iview2?x=-128.77276441889308&y=610.8645102096489&scale=0.5870222003877485&rotation=0&layout=singlePageLayout
!!!ENC: Anna Maria Matuszewska
!!!EEV: 2024/12/27
*-	*-
